src/assets/img/svg/doodle8.svg

<svg width="117" height="120" viewBox="0 0 117 120" fill="none" xmlns="http://www.w3.org/2000/svg">
<g clip-path="url(#clip0_105_31)">
<path d="M115.955 19.4888C115.848 20.0751 115.416 20.6022 114.784 20.7561C102.807 24.0238 93.3652 35.6628 90.413 48.721C98.3191 51.5763 105.049 58.1211 104.703 67.0103C104.573 70.1164 103.439 72.8376 101.606 74.4215C98.7823 76.8345 94.3982 76.5735 91.3845 73.769C89.2592 71.7996 87.8233 68.8117 86.9825 64.5861C86.0857 60.1148 86.0222 55.4925 86.7385 51.0124C86.3161 50.9354 85.8671 50.8199 85.4388 50.7754C73.5997 48.6836 61.0187 53.0528 52.6431 62.1602C48.2394 66.9774 45.1137 73.071 43.5417 79.4816C46.583 81.2142 49.4675 83.2547 52.1745 85.5321C55.2032 88.0701 58.813 91.6564 60.0311 96.7585C61.1934 101.615 59.4412 108.093 54.4729 110.115C52.4129 110.918 50.1825 110.814 48.0858 109.792C44.7018 108.098 41.6717 103.91 40.3675 99.0956C38.8219 93.3953 38.7008 87.2481 39.8441 81.1631C30.0346 76.0423 18.875 73.9061 7.88938 75.2345C6.99706 75.341 6.20886 74.6924 6.09743 73.8307C5.99193 72.9365 6.6397 72.1459 7.49953 72.0335C18.8604 70.6726 30.3953 72.7763 40.5741 77.8971C42.356 71.2556 45.6533 64.9577 50.2226 59.9687C59.3169 50.05 73.0446 45.2842 85.956 47.5716C86.4108 47.6545 86.8333 47.7316 87.2882 47.8145C90.5663 33.7053 100.848 21.1424 113.877 17.6291C114.728 17.3804 115.638 17.9165 115.852 18.7634C115.908 19.0091 115.932 19.249 115.89 19.477L115.955 19.4888ZM89.8131 52.0107C89.2568 55.9814 89.3562 60.0382 90.1531 63.9528C90.8529 67.4796 91.988 69.9078 93.5996 71.3796C95.1523 72.807 97.7929 73.4232 99.5049 71.9518C100.661 70.951 101.401 69.1004 101.469 66.8915C101.741 59.8737 96.2423 54.4957 89.819 51.9781L89.8131 52.0107ZM42.8649 82.8246C42.0179 88.0213 42.2225 93.3424 43.5413 98.2609C44.5775 102.152 46.9997 105.623 49.554 106.896C50.8474 107.536 52.0468 107.586 53.3088 107.11C56.5008 105.807 57.7758 101.025 56.9342 97.5399C55.913 93.3824 52.7519 90.2818 50.104 88.0488C47.8369 86.1209 45.3982 84.3972 42.8914 82.8631L42.8649 82.8246Z" fill="#605DBA"/>
</g>
<defs>
<clipPath id="clip0_105_31">
<rect width="102.968" height="98.3916" fill="white" transform="translate(0.977539 101.537) rotate(-79.6644)"/>
</clipPath>
</defs>
</svg>

<svg width="117" height="120" viewBox="0 0 117 120" fill="none" xmlns="http://www.w3.org/2000/svg"><g clip-path="url(#clip0_105_31)"><path d="M115.955 19.489c-.107.586-.539 1.113-1.171 1.267-11.977 3.268-21.419 14.907-24.371 27.965 7.906 2.855 14.636 9.4 14.29 18.29-.13 3.105-1.264 5.827-3.097 7.41-2.824 2.413-7.208 2.152-10.221-.652-2.126-1.97-3.562-4.957-4.403-9.183a38.393 38.393 0 01-.243-13.574c-.423-.077-.872-.192-1.3-.237-11.84-2.091-24.42 2.278-32.796 11.385-4.404 4.817-7.53 10.911-9.101 17.322 3.041 1.732 5.925 3.773 8.633 6.05 3.028 2.538 6.638 6.124 7.856 11.227 1.162 4.856-.59 11.334-5.558 13.356-2.06.803-4.29.699-6.387-.323-3.384-1.694-6.414-5.882-7.718-10.696-1.546-5.7-1.667-11.848-.524-17.933-9.81-5.12-20.969-7.257-31.955-5.928a1.622 1.622 0 01-1.792-1.404A1.627 1.627 0 017.5 72.034c11.36-1.361 22.895.742 33.074 5.863 1.782-6.641 5.08-12.94 9.649-17.928 9.094-9.919 22.822-14.685 35.733-12.397l1.332.242c3.278-14.109 13.56-26.672 26.589-30.185.851-.249 1.761.287 1.975 1.134.056.246.08.486.038.714l.065.012zM89.813 52.01c-.556 3.97-.457 8.027.34 11.942.7 3.527 1.835 5.955 3.447 7.427 1.552 1.427 4.193 2.043 5.905.572 1.156-1.001 1.896-2.852 1.964-5.06.272-7.018-5.227-12.396-11.65-14.914l-.006.033zM42.865 82.825c-.847 5.196-.643 10.517.676 15.436 1.037 3.891 3.459 7.362 6.013 8.635 1.293.64 2.493.69 3.755.214 3.192-1.303 4.467-6.085 3.625-9.57-1.021-4.158-4.182-7.258-6.83-9.491-2.267-1.928-4.706-3.652-7.213-5.186l-.026-.038z" fill="#605DBA"/></g><defs><clipPath id="clip0_105_31"><path fill="#fff" transform="rotate(-79.664 61.353 50.183)" d="M0 0h102.968v98.392H0z"/></clipPath></defs></svg>
